!!!OTL: BALD SIND WIR AUF EWIG GESCHIEDEN
!!!ARE: Europa, Mitteleuropa, Deutschland, Hochwald, Hellershausen
!!!SCT: B0498
!!!YEM: Copyright 1995, estate of Helmut Schaffrath.
**kern
*ICvox
*Ivox
*M4/4
*k[]
*C:
{4g
=1
4g
8.a
16g
4g
8.a
16g
=2
4g
4f
4r}
{8b
8cc
=3
8dd
8cc
8b
8a
4g
8.a
16f
=4
4f
4e
4r}
{8c
8e
=5
4g
8.g
16g
8g
8cc
8ee
8cc
=6
8b
8a
4a
4r}
{8cc
8a
=7
4g
8.e
16g
4g
8.f
16g
=8
2e
4r}
{8c
8e
=9
4g
8.g
16g
8g
8cc
8ee
8cc
=10
8b
8a
4a
4r}
{8cc
8a
=11
4g
8.e
16g
4g
8.f
16g
=12
2e
4r}
==
!!!AGN: Abschieds - Lied
!!!ONB: ESAC (Essen Associative Code) Database: BOEHME
!!!AMT: simple quadruple
!!!AIN: vox
!!!EED: Helmut Schaffrath
!!!EEV: 1.0
*-
